X: 227
T:Liber generationis / Solomon autem genuit
N: Derived from Jos1913-Liber_generationis.krn
C: Josquin des Prez
%%abc-version 2.0
%%abcx-abcm2ps-target-version 5.9.1 (29 Sep 2008)
%%abc-creator hum2abc beta
%%abcx-conversion-date 2019/02/12 16:15:50
%%abc-edited-by Jesse Rodin
%%abc-edited-by Jesse Rodin; Victoria Chang 2011/05/18/
%%abcx-initial-encoding-date 2011/05/18/
%%humdrum-veritas 1651059258
%%humdrum-veritas-data 2731935593
%%linebreak <none>
%%barnumbers 0
L: 1/4
M: 2/1
Q: 1/2=120
%%staves [1 2 3 4]
V: 1 clef=treble
V: 2 clef=treble-8
V: 3 clef=treble-8
V: 4 clef=bass
K: C
[V:1] G8- | 
[V:2] z8 | 
[V:3] z8 | 
[V:4] z8 | 
[V:1] G8 | 
[V:2] c8- | 
[V:3] z8 | 
[V:4] z8 | 
[V:1] E8 | 
[V:2] c8 | 
[V:3] z8 | 
[V:4] z8 | 
[V:1] z4F4- | 
[V:2] A8- | 
[V:3] z8 | 
[V:4] z8 | 
[V:1] F4E4 | 
[V:2] A8 | 
[V:3] z8 | 
[V:4] z8 | 
[V:1] D4D4 | 
[V:2] B8 | 
[V:3] G8- | 
[V:4] z8 | 
[V:1] E6F2 | 
[V:2] G4c4- | 
[V:3] G8 | 
[V:4] C,8- | 
[V:1] G8 | 
[V:2] c4c4 | 
[V:3] E8 | 
[V:4] C,8 | 
[V:1] A6B2 | 
[V:2] c8 | 
[V:3] z4F4- | 
[V:4] A,,8- | 
[V:1] c8 | 
[V:2] A8 | 
[V:3] F4E4 | 
[V:4] A,,8 | 
[V:1] d8 | 
[V:2] F4G4 | 
[V:3] D4D4 | 
[V:4] B,,8 | 
[V:1] c6BA | 
[V:2] A8 | 
[V:3] E4F4 | 
[V:4] A,,8 | 
[V:1] B8 | 
[V:2] d8 | 
[V:3] G8 | 
[V:4] G,,4G,,4 | 
[V:1] z4c4 | 
[V:2] c6BA | 
[V:3] E8 | 
[V:4] A,,4C,4- | 
[V:1] c4d4 | 
[V:2] G2A4^G2 | 
[V:3] z4D4 | 
[V:4] C,2B,,A,,B,,4 | 
[V:1] c6BA | 
[V:2] A3Bcde2- | 
[V:3] E8 | 
[V:4] A,,8 | 
[V:1] B2c4B2 | 
[V:2] e2dcd4 | 
[V:3] G8 | 
[V:4] z4G,,4 | 
[V:1] c6BA | 
[V:2] c4z4 | 
[V:3] E8 | 
[V:4] A,,4C,4- | 
[V:1] G4A4- | 
[V:2] c8 | 
[V:3] z4F4 | 
[V:4] C,4A,,4- | 
[V:1] A4F4 | 
[V:2] c4d4- | 
[V:3] E4D4- | 
[V:4] A,,4B,,4- | 
[V:1] G4A2c2- | 
[V:2] d4c3d | 
[V:3] D4E4- | 
[V:4] B,,4A,,4 | 
[V:1] c2BAB4 | 
[V:2] e2c2d4 | 
[V:3] E2F2G4 | 
[V:4] A,,4G,,4 | 
[V:1] c4G4 | 
[V:2] c8 | 
[V:3] z4E4 | 
[V:4] A,,3B,,C,4 | 
[V:1] A4D4 | 
[V:2] z8 | 
[V:3] F4G4- | 
[V:4] A,,4B,,4 | 
[V:1] z4E4- | 
[V:2] z8 | 
[V:3] G4G4 | 
[V:4] C,8 | 
[V:1] E4E4 | 
[V:2] c6c2 | 
[V:3] G8 | 
[V:4] C,4C,4- | 
[V:1] E4F3G | 
[V:2] c4B2A2- | 
[V:3] G4F4- | 
[V:4] C,4D,4- | 
[V:1] A3Bc4 | 
[V:2] A2GFG2A2- | 
[V:3] F2E2E4 | 
[V:4] D,4C,4 | 
[V:1] d6cB | 
[V:2] A2^G^F^G4 | 
[V:3] D8 | 
[V:4] B,,8 | 
[V:1] c8- | 
[V:2] A8 | 
[V:3] E8- | 
[V:4] A,,8- | 
[V:1] c6BA | 
[V:2] z4c4 | 
[V:3] E8 | 
[V:4] A,,8 | 
[V:1] G4z2c2- | 
[V:2] c2c2c4 | 
[V:3] z4G4 | 
[V:4] C,8 | 
[V:1] c2BAB4 | 
[V:2] d8 | 
[V:3] G2G2G4 | 
[V:4] G,,8 | 
[V:1] E2c4BA | 
[V:2] z4c4 | 
[V:3] A8 | 
[V:4] z8 | 
[V:1] B2G4^F2 | 
[V:2] d4c4 | 
[V:3] G4A4 | 
[V:4] z8 | 
[V:1] G3F/G/D2G2 | 
[V:2] B3AB4 | 
[V:3] G4G4 | 
[V:4] z8 | 
[V:1] A2c4BA | 
[V:2] A3GABc2- | 
[V:3] F2E2F4 | 
[V:4] z8 | 
[V:1] c2B3AGF | 
[V:2] cdefg2e2- | 
[V:3] E8 | 
[V:4] z8 | 
[V:1] E2G3FED | 
[V:2] e2c2B4 | 
[V:3] z4E4 | 
[V:4] z8 | 
[V:1] C8 | 
[V:2] A8 | 
[V:3] E4F4 | 
[V:4] A,,4A,,4 | 
[V:1] z8 | 
[V:2] z8 | 
[V:3] D4E2G2- | 
[V:4] B,,4G,,3A,, | 
[V:1] z8 | 
[V:2] z8 | 
[V:3] G2F2G2B2 | 
[V:4] B,,C,D,2E,2G,2- | 
[V:1] z8 | 
[V:2] z8 | 
[V:3] A4G4 | 
[V:4] G,2^F,2G,2C,2- | 
[V:1] z8 | 
[V:2] z8 | 
[V:3] E4F4 | 
[V:4] C,2G,2F,2D,2 | 
[V:1] z8 | 
[V:2] z8 | 
[V:3] G6G2 | 
[V:4] E,2C,2G,,2C,2- | 
[V:1] z8 | 
[V:2] z8 | 
[V:3] G4F4 | 
[V:4] C,B,,E,4D,2 | 
[V:1] z4G4 | 
[V:2] z8 | 
[V:3] E4E4 | 
[V:4] E,2G,3F,E,D, | 
[V:1] G4G4 | 
[V:2] z4c4 | 
[V:3] z2E3CC2- | 
[V:4] C,8 | 
[V:1] A4G2A2- | 
[V:2] c4c4 | 
[V:3] C2F2E2F2- | 
[V:4] z8 | 
[V:1] A2GFA2G2- | 
[V:2] d4c4- | 
[V:3] F2EDF2E2 | 
[V:4] z8 | 
[V:1] G2G4G2- | 
[V:2] c2BAB2c2 | 
[V:3] C4z4 | 
[V:4] z8 | 
[V:1] G2A2G2A2- | 
[V:2] G2c2B2A2 | 
[V:3] z8 | 
[V:4] z8 | 
[V:1] AGE2F2E2 | 
[V:2] c3BAGA2- | 
[V:3] z8 | 
[V:4] z8 | 
[V:1] F2E4D2 | 
[V:2] AGFEF4 | 
[V:3] z8 | 
[V:4] z8 | 
[V:1] E4z4 | 
[V:2] E4c4 | 
[V:3] z2E4F2- | 
[V:4] z4A,,4 | 
[V:1] z8 | 
[V:2] d4B3c | 
[V:3] F2D2E2G2- | 
[V:4] B,,4G,,3A,, | 
[V:1] z8 | 
[V:2] d2G2A2D2 | 
[V:3] G2FED4 | 
[V:4] B,,2C,4B,,2 | 
[V:1] z8 | 
[V:2] E4z2G2- | 
[V:3] CDEFG3A | 
[V:4] C,4E,3F, | 
[V:1] z8 | 
[V:2] GABcd2e2 | 
[V:3] B8- | 
[V:4] G,2G,2G,4 | 
[V:1] z8 | 
[V:2] d2e2d2e2 | 
[V:3] B8 | 
[V:4] G,4G,2G,2 | 
[V:1] z8 | 
[V:2] d2e4c2 | 
[V:3] B4c4 | 
[V:4] G,4A,4 | 
[V:1] z8 | 
[V:2] d2e3ddc | 
[V:3] B2G2A3B | 
[V:4] G,2E,2F,4 | 
[V:1] z4G4 | 
[V:2] e8- | 
[V:3] c2B4c2- | 
[V:4] E,8 | 
[V:1] G4G4 | 
[V:2] e8 | 
[V:3] c2BAB4 | 
[V:4] z4E,4 | 
[V:1] A4G2A2- | 
[V:2] c4c4 | 
[V:3] A2F2G2F2 | 
[V:4] F,4C,2F,2 | 
[V:1] AGG4^F2 | 
[V:2] c4d4- | 
[V:3] G4A4 | 
[V:4] E,4D,4 | 
[V:1] G6E2 | 
[V:2] d4c4 | 
[V:3] G4E4 | 
[V:4] G,,4C,4 | 
[V:1] F3GE4- | 
[V:2] d4c4 | 
[V:3] D4E4 | 
[V:4] _B,,4C,4 | 
[V:1] E2DCD4 | 
[V:2] _B3A_B4 | 
[V:3] F8 | 
[V:4] D,8 | 
[V:1] E8- | 
[V:2] A8 | 
[V:3] E8- | 
[V:4] A,,8- | 
[V:1] E6DC | 
[V:2] z4A4 | 
[V:3] E8 | 
[V:4] A,,8 | 
[V:1] G8 | 
[V:2] B4G4 | 
[V:3] z4E4 | 
[V:4] E,8 | 
[V:1] z8 | 
[V:2] A6B2 | 
[V:3] F4D4 | 
[V:4] D,6C,B,, | 
[V:1] z8 | 
[V:2] c4A4 | 
[V:3] E6F2 | 
[V:4] A,,4A,,4 | 
[V:1] z8 | 
[V:2] B4c4- | 
[V:3] G4E4 | 
[V:4] E,8 | 
[V:1] z8 | 
[V:2] c2c2c4- | 
[V:3] F4G4- | 
[V:4] z4E,4- | 
[V:1] z8 | 
[V:2] c2B2c2B2- | 
[V:3] G2G2G3E | 
[V:4] E,2E,2E,4 | 
[V:1] z8 | 
[V:2] BAA4^G2 | 
[V:3] F2E4D2 | 
[V:4] D,2C,2B,,4 | 
[V:1] z4E4 | 
[V:2] A4c4 | 
[V:3] E8 | 
[V:4] A,,8 | 
[V:1] G6A2 | 
[V:2] B8 | 
[V:3] z4G4 | 
[V:4] E,6F,2 | 
[V:1] B3cd2G2- | 
[V:2] z4d4- | 
[V:3] G4G4 | 
[V:4] G,4G,,4 | 
[V:1] G2^FEF4 | 
[V:2] d4d4 | 
[V:3] A8 | 
[V:4] D,8 | 
[V:1] G8 | 
[V:2] d4e4 | 
[V:3] G4c4 | 
[V:4] z8 | 
[V:1] G4A4 | 
[V:2] d2e4dc | 
[V:3] B2c4BA | 
[V:4] z8 | 
[V:1] G2G4FE | 
[V:2] e2d4B2 | 
[V:3] c2B2G4 | 
[V:4] z8 | 
[V:1] F2E4D2 | 
[V:2] c2B4A2 | 
[V:3] A2E2F4 | 
[V:4] z8 | 
[V:1] E4z2E2 | 
[V:2] B2c4BA | 
[V:3] E8- | 
[V:4] z8 | 
[V:1] E2E2G4- | 
[V:2] c4B4 | 
[V:3] E4z4 | 
[V:4] z2E,2E,2E,2 | 
[V:1] G2FED3E | 
[V:2] z2B2B2B2 | 
[V:3] z8 | 
[V:4] G,6F,E, | 
[V:1] FGA3GG2- | 
[V:2] d6B2 | 
[V:3] z8 | 
[V:4] D,4F,2G,2 | 
[V:1] G2^F2G4 | 
[V:2] c3de4 | 
[V:3] z8 | 
[V:4] A,4G,4 | 
[V:1] G4B3c | 
[V:2] e4d4 | 
[V:3] z8 | 
[V:4] E,3F,G,2G,2 | 
[V:1] d2d2d4- | 
[V:2] B3cd2d2 | 
[V:3] z8 | 
[V:4] G,6F,E, | 
[V:1] d2cBA2B2- | 
[V:2] d6cB | 
[V:3] z8 | 
[V:4] D,2G,2F,2G,2- | 
[V:1] B2AGA4 | 
[V:2] d2e2c4 | 
[V:3] z8 | 
[V:4] G,2E,2F,4 | 
[V:1] D8 | 
[V:2] B8 | 
[V:3] z4G4 | 
[V:4] G,8 | 
[V:1] E8 | 
[V:2] c8 | 
[V:3] G4G4 | 
[V:4] C,8 | 
[V:1] z4E4 | 
[V:2] B4c4 | 
[V:3] G4A4- | 
[V:4] z4C,4 | 
[V:1] F4G4- | 
[V:2] F4E4 | 
[V:3] A4G4- | 
[V:4] D,4E,4- | 
[V:1] G4E4 | 
[V:2] e6e2 | 
[V:3] G4A4- | 
[V:4] E,4C,4 | 
[V:1] F4G4 | 
[V:2] d4B4 | 
[V:3] A4G4 | 
[V:4] D,4E,4- | 
[V:1] E2G3Ac2 | 
[V:2] c2B2e4 | 
[V:3] G6E2 | 
[V:4] E,4C,4 | 
[V:1] B2A4^G2 | 
[V:2] d2c2B4 | 
[V:3] F4G4 | 
[V:4] D,4E,4 | 
[V:1] A8- | 
[V:2] A8- | 
[V:3] E4z2E2 | 
[V:4] A,,8- | 
[V:1] A8 | 
[V:2] A4z2A2 | 
[V:3] F2E3DEF | 
[V:4] A,,8 | 
[V:1] z8 | 
[V:2] B2G2A3B | 
[V:3] G3FD4 | 
[V:4] z8 | 
[V:1] z8 | 
[V:2] c4A3B | 
[V:3] C2E2F2G2 | 
[V:4] z8 | 
[V:1] z8 | 
[V:2] c2c2c2d2- | 
[V:3] E2A3GFE | 
[V:4] z8 | 
[V:1] z8 | 
[V:2] d2c2B4 | 
[V:3] D2A4G2 | 
[V:4] z8 | 
[V:1] z8 | 
[V:2] A6GF | 
[V:3] F4E4 | 
[V:4] z4A,,4 | 
[V:1] z8 | 
[V:2] E4E4 | 
[V:3] z4G4 | 
[V:4] C,3D,E,F,E,2- | 
[V:1] z8 | 
[V:2] C4D4 | 
[V:3] G4G4 | 
[V:4] E,2C,2B,,4 | 
[V:1] z8 | 
[V:2] E8 | 
[V:3] A4G4 | 
[V:4] A,,4C,4- | 
[V:1] z8 | 
[V:2] E6E2 | 
[V:3] A6G2 | 
[V:4] C,2C,2C,4- | 
[V:1] z8 | 
[V:2] E4D4 | 
[V:3] G4G4 | 
[V:4] C,4B,,4 | 
[V:1] z8 | 
[V:2] E4D2A2- | 
[V:3] G2E2F4- | 
[V:4] C,4D,4 | 
[V:1] z8 | 
[V:2] ABc4BA | 
[V:3] F4E4- | 
[V:4] A,,6B,,2 | 
[V:1] z8 | 
[V:2] G8 | 
[V:3] E4z2E2 | 
[V:4] C,8 | 
[V:1] z8 | 
[V:2] A4B4 | 
[V:3] F4D4 | 
[V:4] z4B,,4 | 
[V:1] z4E4 | 
[V:2] G4c4- | 
[V:3] E3FG2A2- | 
[V:4] C,8 | 
[V:1] F4D4 | 
[V:2] c2BAB4 | 
[V:3] AGFEF4 | 
[V:4] D,8 | 
[V:1] E3FG4 | 
[V:2] c8 | 
[V:3] G4E3F | 
[V:4] C,8 | 
[V:1] E3FG2G2 | 
[V:2] z4c4 | 
[V:3] G2A2G2c2- | 
[V:4] C,6C,2 | 
[V:1] G2E2F4 | 
[V:2] G2A2_B4 | 
[V:3] cBc2d4 | 
[V:4] C,4_B,,4 | 
[V:1] E8 | 
[V:2] G8- | 
[V:3] c8 | 
[V:4] C,8- | 
[V:1] z4E4 | 
[V:2] G8 | 
[V:3] z2E2G3A | 
[V:4] C,8 | 
[V:1] G3ABAc2- | 
[V:2] z8 | 
[V:3] B2c2d2e2 | 
[V:4] z8 | 
[V:1] cBA4^G2 | 
[V:2] z8 | 
[V:3] A2c2B4 | 
[V:4] z8 | 
[V:1] A2c3BAG | 
[V:2] z8 | 
[V:3] A4z2c2- | 
[V:4] z8 | 
[V:1] A2G4^F2 | 
[V:2] z8 | 
[V:3] cBAGA4 | 
[V:4] z8 | 
[V:1] G4G4 | 
[V:2] d4e4 | 
[V:3] G6E2 | 
[V:4] z8 | 
[V:1] G4F4- | 
[V:2] d4d4 | 
[V:3] G3FD3E | 
[V:4] z8 | 
[V:1] F4E4 | 
[V:2] z2c4B2 | 
[V:3] FGA4G2 | 
[V:4] z8 | 
[V:1] E4z2E2 | 
[V:2] c2B2c4 | 
[V:3] A2G2A4 | 
[V:4] z8 | 
[V:1] G2EFGAB2- | 
[V:2] B4z2B2 | 
[V:3] E8 | 
[V:4] z8 | 
[V:1] BAA4^G2 | 
[V:2] c4B4 | 
[V:3] z4E4 | 
[V:4] z8 | 
[V:1] A8 | 
[V:2] A3Bc2d2- | 
[V:3] F6ED | 
[V:4] z8 | 
[V:1] z8 | 
[V:2] d2^c2d4- | 
[V:3] E4D3E | 
[V:4] A,,4B,,4- | 
[V:1] z8 | 
[V:2] d2cBc3d | 
[V:3] F2G4^F2 | 
[V:4] B,,2G,,2A,,4 | 
[V:1] z8 | 
[V:2] e2d3ce2- | 
[V:3] G8 | 
[V:4] G,,3A,,B,,2C,2- | 
[V:1] z8 | 
[V:2] edc4B2 | 
[V:3] E4F4 | 
[V:4] C,2E,2D,4 | 
[V:1] z8 | 
[V:2] c8 | 
[V:3] G6G2 | 
[V:4] C,8 | 
[V:1] E6E2 | 
[V:2] c6c2 | 
[V:3] G4G4- | 
[V:4] C,6C,2 | 
[V:1] E4D4 | 
[V:2] c4B4 | 
[V:3] G4F4 | 
[V:4] C,4D,4 | 
[V:1] G4F4- | 
[V:2] c4d4- | 
[V:3] G4A4- | 
[V:4] E,4D,4- | 
[V:1] F2E2G4- | 
[V:2] d4B4 | 
[V:3] A4G4 | 
[V:4] D,4G,,4 | 
[V:1] G4E4 | 
[V:2] c8 | 
[V:3] G4A4- | 
[V:4] C,8 | 
[V:1] F4E4- | 
[V:2] c4c4- | 
[V:3] A4G4 | 
[V:4] F,,4C,4- | 
[V:1] E4E4 | 
[V:2] c4c4 | 
[V:3] G4A4- | 
[V:4] C,4C,4 | 
[V:1] F4E4 | 
[V:2] c8 | 
[V:3] A4G4 | 
[V:4] F,,4C,4 | 
[V:1] F4E4- | 
[V:2] A4G4 | 
[V:3] F4G4 | 
[V:4] D,4E,4 | 
[V:1] E2C2D4 | 
[V:2] A8 | 
[V:3] D8 | 
[V:4] F,8 | 
[V:1] E8- | 
[V:2] B6E2 | 
[V:3] G6C2 | 
[V:4] E,8- | 
[V:1] E8- | 
[V:2] B4c4 | 
[V:3] G4A4 | 
[V:4] E,4A,,4 | 
[V:1] E8 ||  
[V:2] B8 ||  
[V:3] G8 ||  
[V:4] E,8 ||  
[V:1]  [K:C] [K:clef=treble][M:2/1]z8 | 
[V:2]  [K:C] [K:clef=treble-8][M:2/1]d4d2d2 | 
[V:3]  [K:C] [K:clef=treble-8][M:2/1]z4G4 | 
[V:4]  [K:C] [K:clef=bass][M:2/1]z8 | 
[V:1] z8 | 
[V:2] d4e4- | 
[V:3] G2G2G4 | 
[V:4] z8 | 
[V:1] z8 | 
[V:2] e2dcf4 | 
[V:3] A4z2A2- | 
[V:4] z4D,4 | 
[V:1] z8 | 
[V:2] z2f3edc | 
[V:3] AF_B2A4 | 
[V:4] D,2D,2D,4 | 
[V:1] z8 | 
[V:2] B3AB2c2- | 
[V:3] z4G4 | 
[V:4] E,8 | 
[V:1] z8 | 
[V:2] c2A2A3G | 
[V:3] A6F2 | 
[V:4] C,4D,4- | 
[V:1] z8 | 
[V:2] A2B4G2 | 
[V:3] F4G4- | 
[V:4] D,2B,,2B,,4 | 
[V:1] z8 | 
[V:2] G4z4 | 
[V:3] G2E2E4 | 
[V:4] C,6A,,2 | 
[V:1] z8 | 
[V:2] c4c2c2 | 
[V:3] z4A4- | 
[V:4] A,,8 | 
[V:1] z8 | 
[V:2] d2f3edc | 
[V:3] A2A2B4 | 
[V:4] D,6D,2 | 
[V:1] z8 | 
[V:2] B4c4 | 
[V:3] G4A2c2- | 
[V:4] E,4C,4 | 
[V:1] z8 | 
[V:2] d4e4- | 
[V:3] c2B2c2G2 | 
[V:4] G,3F,E,D,C,2- | 
[V:1] z8 | 
[V:2] e2c2d2e2 | 
[V:3] A2c3B/A/B2- | 
[V:4] C,2A,,2G,,2G,2- | 
[V:1] z8 | 
[V:2] dcc4B2 | 
[V:3] BAG4F2 | 
[V:4] G,2E,2D,4 | 
[V:1] z8 | 
[V:2] c2C2D2E2- | 
[V:3] G4B4 | 
[V:4] C,4z2G,,2 | 
[V:1] z8 | 
[V:2] EDECG4 | 
[V:3] c4d4- | 
[V:4] A,,4G,,2G,2 | 
[V:1] z8 | 
[V:2] z2G2F2G2 | 
[V:3] d2d2d4 | 
[V:4] F,2G,2z2G,2 | 
[V:1] z8 | 
[V:2] z2G2F2G2 | 
[V:3] d4d3B | 
[V:4] F,2G,2z2G,,2 | 
[V:1] z8 | 
[V:2] z2G4^F2 | 
[V:3] c2B4A2 | 
[V:4] F,,2G,,2D,4 | 
[V:1] z8 | 
[V:2] G4z2d2 | 
[V:3] B8- | 
[V:4] G,,8 | 
[V:1] z8 | 
[V:2] d2d2d4 | 
[V:3] B8 | 
[V:4] z2G,2G,2G,2 | 
[V:1] z8 | 
[V:2] e4z2A2- | 
[V:3] z4c4 | 
[V:4] G,4A,2F,2- | 
[V:1] z8 | 
[V:2] A2GFG2A2- | 
[V:3] c2c2c4 | 
[V:4] F,2E,D,E,2F,2- | 
[V:1] z8 | 
[V:2] A2GFA2B2 | 
[V:3] d8 | 
[V:4] F,2E,D,F,2G,2 | 
[V:1] z8 | 
[V:2] G2A4GF | 
[V:3] c4d4 | 
[V:4] E,2F,4E,D, | 
[V:1] z8 | 
[V:2] ABcdefe2- | 
[V:3] c2c4BA | 
[V:4] F,2E,2A,4 | 
[V:1] z8 | 
[V:2] edd4^c2 | 
[V:3] B2A4G2 | 
[V:4] G,2F,2E,4 | 
[V:1] z8 | 
[V:2] d4z2D2 | 
[V:3] A8 | 
[V:4] D,6C,B,, | 
[V:1] z8 | 
[V:2] E2C2D3E | 
[V:3] z2A2B2G2 | 
[V:4] A,,4G,,4 | 
[V:1] z8 | 
[V:2] F4E2F2- | 
[V:3] A3Bc4 | 
[V:4] D,4A,,4 | 
[V:1] z8 | 
[V:2] FEF2G2A2- | 
[V:3] A3Bc2c2 | 
[V:4] D,4C,4 | 
[V:1] z8 | 
[V:2] AGAFG2C2 | 
[V:3] c4z2c2- | 
[V:4] F,4E,4 | 
[V:1] z8 | 
[V:2] z2F2E2C2 | 
[V:3] c2BAB2c2 | 
[V:4] A,4G,2E,2 | 
[V:1] z8 | 
[V:2] z2G4FE | 
[V:3] A2c4BA | 
[V:4] F,2E,4D,C, | 
[V:1] z8 | 
[V:2] F2E4D2 | 
[V:3] B2A4^G2 | 
[V:4] D,2A,,2B,,4 | 
[V:1] z8 | 
[V:2] F2E2F2E2 | 
[V:3] A4z2c2 | 
[V:4] A,,8- | 
[V:1] z8 | 
[V:2] F2E2FDE2 | 
[V:3] c2c2c4 | 
[V:4] A,,8 | 
[V:1] z8 | 
[V:2] D2F2G2A2- | 
[V:3] d4B2c2- | 
[V:4] z8 | 
[V:1] z8 | 
[V:2] ABcde2f2- | 
[V:3] cBA2G2A2 | 
[V:4] z8 | 
[V:1] z8 | 
[V:2] fed4^c2 | 
[V:3] F4E4 | 
[V:4] z4A,,4 | 
[V:1] z8 | 
[V:2] d4z2B2 | 
[V:3] z2D2G3F | 
[V:4] B,,4G,,4 | 
[V:1] z8 | 
[V:2] c2A4GF | 
[V:3] ECc4BA | 
[V:4] A,,6B,,2 | 
[V:1] z8 | 
[V:2] ECc4BA | 
[V:3] GEA4GF | 
[V:4] C,4A,,3B,, | 
[V:1] z8 | 
[V:2] GEA4GF | 
[V:3] ECc4BA | 
[V:4] C,2C,2C,4 | 
[V:1] z8 | 
[V:2] ECc4BA | 
[V:3] GEA4GF | 
[V:4] C,4C,4- | 
[V:1] z8 | 
[V:2] G2A2D4 | 
[V:3] ECF4ED | 
[V:4] C,2A,,2B,,4 | 
[V:1] z8 | 
[V:2] z2F4ED | 
[V:3] CA,A4GF | 
[V:4] A,,8- | 
[V:1] z8 | 
[V:2] CA,A4GF | 
[V:3] ECc4BA | 
[V:4] A,,8 | 
[V:1] z8 | 
[V:2] ECc4BA | 
[V:3] GEA4GF | 
[V:4] z4C,4 | 
[V:1] z8 | 
[V:2] G2A2E4 | 
[V:3] E3FG2A2- | 
[V:4] C,2C,2C,4 | 
[V:1] z8 | 
[V:2] z4z2F2 | 
[V:3] A2GFA2B2 | 
[V:4] D,8 | 
[V:1] z8 | 
[V:2] G2A4B2 | 
[V:3] c4F4 | 
[V:4] C,4D,4 | 
[V:1] z8 | 
[V:2] c4z2c2 | 
[V:3] G4A4 | 
[V:4] C,4C,4 | 
[V:1] z8 | 
[V:2] d2e4dc | 
[V:3] G4G4 | 
[V:4] z2C,4B,,A,, | 
[V:1] z8 | 
[V:2] e2f2d2f2- | 
[V:3] z2F4ED | 
[V:4] C,2D,2B,,4 | 
[V:1] z8 | 
[V:2] f2ed^cde^c | 
[V:3] F2G2E4 | 
[V:4] A,,8 | 
[V:1] z8 | 
[V:2] d4A2B2 | 
[V:3] D8 | 
[V:4] z2D,4D,2 | 
[V:1] z8 | 
[V:2] G2A3GFE | 
[V:3] z4z2A2- | 
[V:4] E,2C,2D,3E, | 
[V:1] z8 | 
[V:2] DCF4E2 | 
[V:3] A2A2B2G2 | 
[V:4] F,2A,2G,4 | 
[V:1] z8 | 
[V:2] F2A3Bcd | 
[V:3] A3Bc2e2 | 
[V:4] F,4z2C,2 | 
[V:1] z8 | 
[V:2] B2A3Gc2- | 
[V:3] d4c4 | 
[V:4] D,3E,F,2E,2 | 
[V:1] z8 | 
[V:2] cde4d2 | 
[V:3] z2G2A3B | 
[V:4] F,2E,2F,4 | 
[V:1] z8 | 
[V:2] e4z4 | 
[V:3] c2B2c2B2 | 
[V:4] E,8 | 
[V:1] z8 | 
[V:2] e4d2e2- | 
[V:3] c4B4 | 
[V:4] z4G,4 | 
[V:1] z8 | 
[V:2] e2dcd2e2- | 
[V:3] z4B4 | 
[V:4] A,4G,4 | 
[V:1] z8 | 
[V:2] e2dcd2e2- | 
[V:3] c4B4 | 
[V:4] A,4G,4 | 
[V:1] z8 | 
[V:2] e2c2d2e2- | 
[V:3] c4B4 | 
[V:4] A,4G,4 | 
[V:1] z8 | 
[V:2] e2dcd2e2 | 
[V:3] c4B2c2- | 
[V:4] A,4G,2E,2 | 
[V:1] z8 | 
[V:2] A4e3c | 
[V:3] c2BAB2c2 | 
[V:4] F,4E,2A,2 | 
[V:1] z8 | 
[V:2] d2e2A4 | 
[V:3] B2c4BA | 
[V:4] G,2E,2F,4 | 
[V:1] z8 | 
[V:2] B4z4 | 
[V:3] G8- | 
[V:4] E,8 | 
[V:1] z8 | 
[V:2] B2B2B2c2- | 
[V:3] G8 | 
[V:4] z2E,2E,2E,2 | 
[V:1] z8 | 
[V:2] cAA2B2c2 | 
[V:3] z8 | 
[V:4] F,3D,D,2E,2 | 
[V:1] z8 | 
[V:2] d4B2c2 | 
[V:3] z8 | 
[V:4] F,2G,4E,2 | 
[V:1] z8 | 
[V:2] d4B2c2 | 
[V:3] z8 | 
[V:4] F,2G,4E,2 | 
[V:1] z8 | 
[V:2] d2B3AGF | 
[V:3] z8 | 
[V:4] F,2G,2E,4 | 
[V:1] z8 | 
[V:2] E8 | 
[V:3] G2G2G4- | 
[V:4] z2C,2C,2C,2 | 
[V:1] z8 | 
[V:2] z8 | 
[V:3] G2A3GA2 | 
[V:4] C,4D,3C, | 
[V:1] z8 | 
[V:2] z8 | 
[V:3] B2c4BA | 
[V:4] D,2E,2F,4 | 
[V:1] z8 | 
[V:2] z8 | 
[V:3] cBc4BA | 
[V:4] E,2C,2D,4 | 
[V:1] z8 | 
[V:2] z4z2B2 | 
[V:3] c2B2G4 | 
[V:4] E,8- | 
[V:1] z8 | 
[V:2] c2B3ABc | 
[V:3] z4z2E2 | 
[V:4] E,8 | 
[V:1] z8 | 
[V:2] d2G2z2G2 | 
[V:3] F2E3DEF | 
[V:4] z8 | 
[V:1] z8 | 
[V:2] B2c2d3c | 
[V:3] G2C2z2G2 | 
[V:4] z8 | 
[V:1] z8 | 
[V:2] d2e2d2B2- | 
[V:3] B2c2d3c | 
[V:4] z8 | 
[V:1] z8 | 
[V:2] BAc3BG2 | 
[V:3] d2e3dB2 | 
[V:4] z8 | 
[V:1] z8 | 
[V:2] A2E3DEF | 
[V:3] c4B4 | 
[V:4] z8 | 
[V:1] [M:3/1]z12 | 
[V:2] [M:3/1]G4G4G4 | 
[V:3] [M:3/1]E8E4 | 
[V:4] [M:3/1]C,8C,4 | 
[V:1] z12 | 
[V:2] G8A4- | 
[V:3] E4E8 | 
[V:4] C,4C,8 | 
[V:1] z12 | 
[V:2] A2G2A4B4 | 
[V:3] F6E2F4 | 
[V:4] D,6C,2D,4 | 
[V:1] z12 | 
[V:2] c8B2A2 | 
[V:3] G4A8 | 
[V:4] E,4F,8 | 
[V:1] z12 | 
[V:2] G8G4 | 
[V:3] B4E8 | 
[V:4] E,4C,8 | 
[V:1] z12 | 
[V:2] A4B4G4- | 
[V:3] E4F4G4 | 
[V:4] C,4D,4E,4 | 
[V:1] z12 | 
[V:2] G4G4A4 | 
[V:3] E8E4 | 
[V:4] C,8C,4 | 
[V:1] z12 | 
[V:2] G4A8 | 
[V:3] D4E4F4- | 
[V:4] B,,4C,4D,4- | 
[V:1] z12 | 
[V:2] B8z4 | 
[V:3] F2EFG8 | 
[V:4] D,4E,8 | 
[V:1] z12 | 
[V:2] A4A4G4 | 
[V:3] c4c4c4 | 
[V:4] F,4F,4E,4 | 
[V:1] z12 | 
[V:2] A4G4A4 | 
[V:3] c4c4c4 | 
[V:4] F,4E,4F,4 | 
[V:1] z12 | 
[V:2] G4F4G4 | 
[V:3] c4B4c4 | 
[V:4] C,4D,4E,4 | 
[V:1] z12 | 
[V:2] A6G2F2E2 | 
[V:3] d6c2B2A2 | 
[V:4] F,6E,2D,4 | 
[V:1] z12 | 
[V:2] E8D4 | 
[V:3] A8^G4 | 
[V:4] C,4B,,8 | 
[V:1] z12 | 
[V:2] E8G4 | 
[V:3] A4c4B4 | 
[V:4] A,,8E,4 | 
[V:1] z12 | 
[V:2] A6G2F2E2 | 
[V:3] d6c2B2A2 | 
[V:4] F,6E,2D,4 | 
[V:1] z12 | 
[V:2] E8D4 | 
[V:3] A8^G4 | 
[V:4] C,4B,,8 | 
[V:1] z12 ||  
[V:2] E12 ||  
[V:3] A12 ||  
[V:4] A,,12 ||  
[V:1]  [K:C] [K:clef=treble][M:2/1]z8 | 
[V:2]  [K:C] [K:clef=treble-8][M:2/1]A8 | 
[V:3]  [K:C] [K:clef=treble-8][M:2/1]z8 | 
[V:4]  [K:C] [K:clef=bass][M:2/1]z8 | 
[V:1] z8 | 
[V:2] c8- | 
[V:3] z8 | 
[V:4] A,,8 | 
[V:1] E8 | 
[V:2] c6d2 | 
[V:3] z8 | 
[V:4] C,8 | 
[V:1] G8 | 
[V:2] e8 | 
[V:3] E8 | 
[V:4] C,6C,2 | 
[V:1] G6G2 | 
[V:2] e6e2 | 
[V:3] G8 | 
[V:4] C,4C,4 | 
[V:1] G4C4 | 
[V:2] e4e4 | 
[V:3] G6G2 | 
[V:4] C,8- | 
[V:1] c8 | 
[V:2] e6c2 | 
[V:3] G4G4 | 
[V:4] C,8 | 
[V:1] B8 | 
[V:2] e3fd4 | 
[V:3] G8 | 
[V:4] G,,8 | 
[V:1] z4A4- | 
[V:2] c8 | 
[V:3] E4F4- | 
[V:4] A,,6F,,2 | 
[V:1] A4G4 | 
[V:2] c6B2 | 
[V:3] F4E4- | 
[V:4] F,,4C,4- | 
[V:1] A4B4 | 
[V:2] A4G4 | 
[V:3] E4D4 | 
[V:4] C,4B,,4 | 
[V:1] c8 | 
[V:2] A4E4- | 
[V:3] E6F2 | 
[V:4] A,,8 | 
[V:1] B8- | 
[V:2] E2D2D4 | 
[V:3] G8- | 
[V:4] G,,8- | 
[V:1] B8- | 
[V:2] z2D2D2D2 | 
[V:3] G8- | 
[V:4] G,,8 | 
[V:1] B8 | 
[V:2] E4D2G2- | 
[V:3] G8 | 
[V:4] z4G,,4 | 
[V:1] G4G4 | 
[V:2] GABcd2B2 | 
[V:3] z4G4 | 
[V:4] G,,4G,,4 | 
[V:1] G4c4 | 
[V:2] c3de4 | 
[V:3] G4G4 | 
[V:4] C,6D,2 | 
[V:1] B2c4BA | 
[V:2] z2e4c2 | 
[V:3] G4A4 | 
[V:4] E,4A,,4 | 
[V:1] B4E4 | 
[V:2] d2e4E2- | 
[V:3] G4A4- | 
[V:4] z4A,,4 | 
[V:1] z4c4 | 
[V:2] E2E2E4 | 
[V:3] A2G2G4- | 
[V:4] C,6D,2 | 
[V:1] B2c4BA | 
[V:2] z2e4e2 | 
[V:3] G4A4 | 
[V:4] E,4z2A,,2 | 
[V:1] B2c2dcBA | 
[V:2] e4A2d2 | 
[V:3] G2E2F4 | 
[V:4] E,4D,4 | 
[V:1] G4z2A2 | 
[V:2] B2c4BA | 
[V:3] E8 | 
[V:4] E,4z2A,,2 | 
[V:1] G2E2F4 | 
[V:2] B2c2dcBA | 
[V:3] z8 | 
[V:4] E,4D,4 | 
[V:1] E4z2E2 | 
[V:2] G8 | 
[V:3] z2B2B2B2 | 
[V:4] E,8 | 
[V:1] E2E2F4- | 
[V:2] z8 | 
[V:3] cBAGA2BA | 
[V:4] z8 | 
[V:1] F2EDE4 | 
[V:2] z8 | 
[V:3] BAd4^c2 | 
[V:4] z8 | 
[V:1] D2F2G2A2 | 
[V:2] z8 | 
[V:3] d4B2c2 | 
[V:4] z8 | 
[V:1] z2A2d3B | 
[V:2] z8 | 
[V:3] d4z2d2 | 
[V:4] z8 | 
[V:1] c2B4A2 | 
[V:2] z8 | 
[V:3] e2B2c4 | 
[V:4] z8 | 
[V:1] B2D2G3E | 
[V:2] z4z2G2 | 
[V:3] B8 | 
[V:4] z8 | 
[V:1] F2E4D2 | 
[V:2] A2E2F4 | 
[V:3] z8 | 
[V:4] z8 | 
[V:1] E8 | 
[V:2] E8 | 
[V:3] z2G2c3A | 
[V:4] z4z2C,2 | 
[V:1] z8 | 
[V:2] z8 | 
[V:3] B2A4^G2 | 
[V:4] D,2A,,2B,,4 | 
[V:1] z2C2c3A | 
[V:2] z4z2c2 | 
[V:3] A8 | 
[V:4] A,,8 | 
[V:1] B2A4^G2 | 
[V:2] d2A2B4 | 
[V:3] z8 | 
[V:4] z8 | 
[V:1] A8 | 
[V:2] A8 | 
[V:3] z2c2f3d | 
[V:4] z4z2F,2 | 
[V:1] z8 | 
[V:2] z8 | 
[V:3] e2d4^c2 | 
[V:4] G,2D,2E,4 | 
[V:1] z4z2F2 | 
[V:2] z2D2f3d | 
[V:3] d8 | 
[V:4] D,8 | 
[V:1] G2D2E4 | 
[V:2] e2d4^c2 | 
[V:3] z8 | 
[V:4] z8 | 
[V:1] D8 | 
[V:2] d8 | 
[V:3] z4z2G2 | 
[V:4] z2G,2G,2G,2 | 
[V:1] z8 | 
[V:2] z8 | 
[V:3] G2G2AGc2 | 
[V:4] E,2C,4B,,A,, | 
[V:1] z8 | 
[V:2] z8 | 
[V:3] BAA4^G2 | 
[V:4] G,,2A,,2B,,4 | 
[V:1] z8 | 
[V:2] z8 | 
[V:3] A4G2A2- | 
[V:4] A,,2C,3B,,C,D, | 
[V:1] z8 | 
[V:2] z8 | 
[V:3] ABG3EF2 | 
[V:4] G,,4A,,4 | 
[V:1] z8 | 
[V:2] z8 | 
[V:3] G2E3CD2 | 
[V:4] G,,2G,3E,F,2 | 
[V:1] z8 | 
[V:2] z8 | 
[V:3] E2G2F4 | 
[V:4] G,2E,3C,D,2 | 
[V:1] z8 | 
[V:2] z8 | 
[V:3] [M:3/1]E8 | 
[V:4] E,6A,,2 | 
[V:1] [M:3/1]E8E4 | 
[V:2] [M:3/1]c8c4 | 
[V:3] z4A8 | 
[V:4] [M:3/1]A,,12 | 
[V:1] F6D2D4 | 
[V:2] c4d6B2 | 
[V:3] A4B6G2 | 
[V:4] z12 | 
[V:1] E4F4G4- | 
[V:2] B4c4d4 | 
[V:3] G4A4B4 | 
[V:4] z12 | 
[V:1] G4E4F4 | 
[V:2] e8c4 | 
[V:3] c8A4 | 
[V:4] z12 | 
[V:1] G6G2G4 | 
[V:2] d4e8 | 
[V:3] B4c8 | 
[V:4] z12 | 
[V:1] A8_B4 | 
[V:2] A4f8 | 
[V:3] c4d8 | 
[V:4] z12 | 
[V:1] A4G2F4ED | 
[V:2] e4d6c2 | 
[V:3] c4_B8 | 
[V:4] z12 | 
[V:1] C12 | 
[V:2] e8z4 | 
[V:3] A8A4 | 
[V:4] z12 | 
[V:1] z12 | 
[V:2] E4E4E4 | 
[V:3] G4G4A4- | 
[V:4] C,4C,4C,4 | 
[V:1] z12 | 
[V:2] F4C8 | 
[V:3] A4G8 | 
[V:4] D,4E,8 | 
[V:1] z12 | 
[V:2] c8z4 | 
[V:3] A8G4- | 
[V:4] F,8C,4- | 
[V:1] z12 | 
[V:2] c8c4 | 
[V:3] G2F2G4A4 | 
[V:4] C,2D,2E,4F,4 | 
[V:1] z12 | 
[V:2] B4d8 | 
[V:3] E4F8 | 
[V:4] G,4A,8 | 
[V:1] z12 | 
[V:2] c8z4 | 
[V:3] E8z4 | 
[V:4] A,,12 | 
[V:1] z12 | 
[V:2] C8C4 | 
[V:3] E8F4- | 
[V:4] z4A,,8 | 
[V:1] z12 | 
[V:2] D6B,2B,4 | 
[V:3] F2D2D4E4 | 
[V:4] B,,6G,,2G,,4 | 
[V:1] z12 | 
[V:2] C4D4E4- | 
[V:3] F4G8 | 
[V:4] A,,4B,,4C,4- | 
[V:1] z12 | 
[V:2] E4C4D4 | 
[V:3] E4F4G4- | 
[V:4] C,4A,,4B,,4 | 
[V:1] z12 | 
[V:2] E6E2E4 | 
[V:3] G2G2G6E2 | 
[V:4] C,6C,2C,4 | 
[V:1] z12 | 
[V:2] C4D6C2 | 
[V:3] F2E2G2F4ED | 
[V:4] A,,4_B,,8 | 
[V:1] [M:2/1]z8 | 
[V:2] [M:2/1]E8- | 
[V:3] [M:2/1]C8 | 
[V:4] [M:2/1]A,,4z2A,,2 | 
[V:1] z8 | 
[V:2] E8 | 
[V:3] z2G2A2c2- | 
[V:4] E,4A,,4 | 
[V:1] z4G4 | 
[V:2] z2e4e2 | 
[V:3] cBcAB4 | 
[V:4] E,8 | 
[V:1] A2c3BcA | 
[V:2] e4e4 | 
[V:3] A8 | 
[V:4] z2A,,4A,,2 | 
[V:1] B4A4 | 
[V:2] z2B2c4 | 
[V:3] z2G2A3G | 
[V:4] E,4A,,4 | 
[V:1] z2G2A4- | 
[V:2] B4z2A2 | 
[V:3] E2G2F4 | 
[V:4] E,4z4 | 
[V:1] A2GFE2G2 | 
[V:2] c3de4 | 
[V:3] E4z2E2 | 
[V:4] A,,4C,4 | 
[V:1] F4E4 | 
[V:2] z2A2c4 | 
[V:3] F2D2E3F | 
[V:4] D,4C,4 | 
[V:1] z2B2c2A2 | 
[V:2] d4c4 | 
[V:3] G4E3F | 
[V:4] z2G,,2A,,4 | 
[V:1] B3cd4 | 
[V:2] z2d4d2 | 
[V:3] G2G2G3A | 
[V:4] G,,4z2G,2- | 
[V:1] G4A4 | 
[V:2] d2e2c3d | 
[V:3] B2c2A3B | 
[V:4] G,2E,2F,4 | 
[V:1] G4z2G2- | 
[V:2] e8 | 
[V:3] c2B2cBcB | 
[V:4] E,8 | 
[V:1] G2E2F4 | 
[V:2] z8 | 
[V:3] cBe3cd2 | 
[V:4] z8 | 
[V:1] E4E4 | 
[V:2] z4z2E2 | 
[V:3] e8 | 
[V:4] z2A,,2A,,2C,2- | 
[V:1] z8 | 
[V:2] E2G3EB2- | 
[V:3] z8 | 
[V:4] C,B,,E,4D,2 | 
[V:1] G3GG2G2 | 
[V:2] BGc2B2E2 | 
[V:3] z2e3ee2 | 
[V:4] E,8 | 
[V:1] A2E2F4 | 
[V:2] z8 | 
[V:3] f2e3cd2 | 
[V:4] z8 | 
[V:1] E8 | 
[V:2] z2c3cc2 | 
[V:3] e8 | 
[V:4] C,3C,C,2C,2 | 
[V:1] z8 | 
[V:2] BAA4^G2 | 
[V:3] z8 | 
[V:4] D,2A,,2B,,4 | 
[V:1] z2E2E2E2 | 
[V:2] A8 | 
[V:3] z4z2A2 | 
[V:4] A,,8 | 
[V:1] FEA2G2F2- | 
[V:2] z8 | 
[V:3] A2A2BAd2- | 
[V:4] z8 | 
[V:1] F2E2D4 | 
[V:2] z8 | 
[V:3] dcc4B2 | 
[V:4] z8 | 
[V:1] C8 | 
[V:2] z4z2E2- | 
[V:3] c8 | 
[V:4] z2A,,3G,,A,,B,, | 
[V:1] z8 | 
[V:2] EDEFG2A2 | 
[V:3] z8 | 
[V:4] C,2C,2C,4- | 
[V:1] z8 | 
[V:2] G2A3^G^G^F | 
[V:3] z8 | 
[V:4] C,2A,,2B,,4 | 
[V:1] z4z2E2- | 
[V:2] A8 | 
[V:3] z2A3GAB | 
[V:4] A,,8 | 
[V:1] EDEFG2A2 | 
[V:2] z8 | 
[V:3] c2c2c4- | 
[V:4] z8 | 
[V:1] G2A3^GG^F | 
[V:2] z8 | 
[V:3] c2A2B4 | 
[V:4] z8 | 
[V:1] A4z2E2 | 
[V:2] z4c4 | 
[V:3] A8 | 
[V:4] z8 | 
[V:1] F4E4 | 
[V:2] d4c4 | 
[V:3] D4A4 | 
[V:4] z4A,,4 | 
[V:1] D2F3EA2- | 
[V:2] d4c4 | 
[V:3] D4A4 | 
[V:4] _B,,4A,,4 | 
[V:1] A2G2A4 | 
[V:2] d4c4 | 
[V:3] z2D2E3F | 
[V:4] _B,,4A,,4 | 
[V:1] z2A2d4 | 
[V:2] B2A2B4 | 
[V:3] G2A2G4 | 
[V:4] G,,2F,,2G,,4 | 
[V:1] c8 | 
[V:2] A8 | 
[V:3] E4z2E2 | 
[V:4] A,,8 | 
[V:1] A4c4 | 
[V:2] z4A4 | 
[V:3] F2D2E3F | 
[V:4] z4A,,4 | 
[V:1] B3GG4 | 
[V:2] B4c4 | 
[V:3] G4E4 | 
[V:4] E,4E,4 | 
[V:1] z2A2B3G | 
[V:2] d4B4 | 
[V:3] F4G4- | 
[V:4] D,4G,,4 | 
[V:1] G3A/B/c4 | 
[V:2] c4e4 | 
[V:3] G2G2G4 | 
[V:4] C,4C,4 | 
[V:1] B2A4GF | 
[V:2] (3d6A2B4 | 
[V:3] F8 | 
[V:4] D,8 | 
[V:1] E8 | 
[V:2] c8 | 
[V:3] G8 | 
[V:4] C,8 | 
[V:1] z4D4 | 
[V:2] A4B4 | 
[V:3] F4G4 | 
[V:4] D,4G,,4 | 
[V:1] E2G2F2A2 | 
[V:2] c4A4 | 
[V:3] E4F4 | 
[V:4] C,4D,4 | 
[V:1] G2F4ED | 
[V:2] (3_B6F2G4 | 
[V:3] D8 | 
[V:4] _B,,8 | 
[V:1] C6D2 | 
[V:2] A4c4- | 
[V:3] E8- | 
[V:4] A,,8 | 
[V:1] E2F2G4 | 
[V:2] c4B4 | 
[V:3] E8 | 
[V:4] z8 | 
[V:1] z4G4- | 
[V:2] B8 | 
[V:3] z8 | 
[V:4] E,8 | 
[V:1] G2F2E4 | 
[V:2] z8 | 
[V:3] E8 | 
[V:4] G,8 | 
[V:1] D4d4- | 
[V:2] B8 | 
[V:3] G8 | 
[V:4] G,,8- | 
[V:1] d2c2B4 | 
[V:2] d8 | 
[V:3] z4G4- | 
[V:4] G,,4G,,4 | 
[V:1] A6F2 | 
[V:2] z4d4- | 
[V:3] G4F4 | 
[V:4] D,8 | 
[V:1] G4A4 | 
[V:2] d4c4 | 
[V:3] E8 | 
[V:4] z4A,,4 | 
[V:1] D4z2G2- | 
[V:2] B8 | 
[V:3] z4D4 | 
[V:4] B,,4G,,4 | 
[V:1] GFEDE4 | 
[V:2] z4A4 | 
[V:3] E6F2 | 
[V:4] C,6B,,2 | 
[V:1] D8 | 
[V:2] B6c2 | 
[V:3] G8 | 
[V:4] G,,8- | 
[V:1] z4B4- | 
[V:2] d4d4 | 
[V:3] G8 | 
[V:4] G,,8 | 
[V:1] B4G4 | 
[V:2] d4e4- | 
[V:3] G8 | 
[V:4] z4C,4- | 
[V:1] c6A2 | 
[V:2] e4c4 | 
[V:3] A8 | 
[V:4] C,4A,,4 | 
[V:1] A4B4- | 
[V:2] d6B2 | 
[V:3] F4G4- | 
[V:4] D,4G,,4- | 
[V:1] B2G2G4 | 
[V:2] B8 | 
[V:3] G4E4 | 
[V:4] G,,4G,4- | 
[V:1] z2G4E2 | 
[V:2] z4e4- | 
[V:3] E8- | 
[V:4] G,2F,E,E,2C,2- | 
[V:1] E8- | 
[V:2] e2c2c3A | 
[V:3] E8- | 
[V:4] C,2B,,A,,A,,4 | 
[V:1] E8- | 
[V:2] c2B4G2 | 
[V:3] E8- | 
[V:4] z2G,,4F,,E,, | 
[V:1] E8 |]  
[V:2] G8 |]  
[V:3] E8 |]  
[V:4] E,,8 |]  



